resources/haticons/SVG/gitter.svg

<!-- Generated by IcoMoon.io -->
<svg version="1.1" xmlns="http://www.w3.org/2000/svg" width="24" height="24" viewBox="0 0 24 24">
<title>gitter</title>
<path fill="#ed1965" d="M8.501 4.001h1.999v19.999h-1.999zM15.5 4.001v19.999h-2v-19.999zM3.5 0h2.001v15h-2.001zM18.5 4.001h2v10.999h-2z"></path>
</svg>

<svg xmlns="http://www.w3.org/2000/svg" width="24" height="24"><path fill="#ed1965" d="M8.501 4.001H10.5V24H8.501zm6.999 0V24h-2V4.001zM3.5 0h2.001v15H3.5zm15 4.001h2V15h-2z"/></svg>
